images/phone_40_color_dark.svg

<svg width="40" height="40" viewBox="0 0 40 40" fill="none" xmlns="http://www.w3.org/2000/svg">
<g clip-path="url(#clip0_11_324)">
<path d="M12.7584 7.51766C11.468 5.81975 8.97599 5.65063 7.468 7.15862L6.7125 7.91411C4.29621 10.3304 3.09176 13.8063 4.1996 17.0389C5.79923 21.7065 8.4611 26.0907 12.1852 29.8148C15.9093 33.5389 20.2935 36.2008 24.9611 37.8004C28.1937 38.9082 31.6696 37.7038 34.0859 35.2875L34.8414 34.532C36.3494 33.024 36.1802 30.532 34.4823 29.2416L29.5336 25.4806C28.1325 24.4157 26.1601 24.5496 24.9157 25.794L22.7613 27.9484C22.0741 28.6356 19.5673 27.2429 17.1622 24.8378C14.7571 22.4327 13.3644 19.9259 14.0516 19.2387L16.206 17.0843C17.4504 15.8399 17.5843 13.8675 16.5194 12.4664L12.7584 7.51766Z" fill="#F3D48F" style="fill:#F3D48F;fill:color(display-p3 0.9527 0.8304 0.5627);fill-opacity:1;"/>
<path fill-rule="evenodd" clip-rule="evenodd" d="M16.5388 16.7049C17.557 15.4732 17.6096 13.6839 16.6253 12.3887L12.9103 7.50064C11.6977 5.9051 9.41087 5.6763 7.90869 6.94039C8.09043 11.8855 11.7654 15.9385 16.5388 16.7049ZM24.6261 25.8459L24.9188 25.5532C26.148 24.324 28.0962 24.1918 29.4802 25.2436L34.3684 28.9585C35.6697 29.9476 36.0619 31.6512 35.4764 33.0608C35.1409 33.0939 34.8006 33.1108 34.4563 33.1108C29.8281 33.1108 25.9143 30.0521 24.6261 25.8459Z" fill="#DBB96E" style="fill:#DBB96E;fill:color(display-p3 0.8588 0.7255 0.4314);fill-opacity:1;"/>
<path fill-rule="evenodd" clip-rule="evenodd" d="M5.45199 6.6536L6.20749 5.89811C8.47933 3.62627 12.2336 3.88106 14.1776 6.43903L17.9387 11.3877C19.5429 13.4986 19.3413 16.47 17.4665 18.3448L15.7667 20.0446C15.8205 20.1727 15.8976 20.3338 16.0056 20.5283C16.4675 21.3598 17.3031 22.4576 18.4227 23.5773C19.5424 24.6969 20.6402 25.5325 21.4717 25.9944C21.6662 26.1025 21.8273 26.1795 21.9554 26.2333L23.6552 24.5335C25.53 22.6587 28.5014 22.4571 30.6123 24.0613L35.561 27.8224C38.1189 29.7664 38.3737 33.5207 36.1019 35.7925L35.3464 36.548C32.5717 39.3227 28.4091 40.8665 24.3831 39.4867C19.4642 37.801 14.8451 34.9957 10.9247 31.0753C7.00431 27.1549 4.19902 22.5358 2.51325 17.6169C1.13353 13.5909 2.67732 9.42828 5.45199 6.6536ZM22.313 26.3462C22.313 26.3462 22.3061 26.3461 22.2901 26.3434C22.3047 26.3444 22.313 26.3462 22.313 26.3462ZM15.6538 19.687C15.6538 19.687 15.6556 19.6953 15.6566 19.7099C15.6539 19.6939 15.6538 19.687 15.6538 19.687ZM7.468 7.15862C8.97599 5.65063 11.468 5.81975 12.7584 7.51766L16.5194 12.4664C17.5843 13.8675 17.4504 15.8399 16.206 17.0843L14.0516 19.2387C13.3644 19.9259 14.7571 22.4327 17.1622 24.8378C19.5673 27.2429 22.0741 28.6356 22.7613 27.9484L24.9157 25.794C26.1601 24.5496 28.1325 24.4157 29.5336 25.4806L34.4823 29.2416C36.1802 30.532 36.3494 33.024 34.8414 34.532L34.0859 35.2875C31.6696 37.7038 28.1937 38.9082 24.9611 37.8004C20.2935 36.2008 15.9093 33.5389 12.1852 29.8148C8.4611 26.0907 5.79923 21.7065 4.1996 17.0389C3.09176 13.8063 4.29621 10.3304 6.7125 7.91411L7.468 7.15862Z" fill="black" style="fill:black;fill-opacity:1;"/>
<path fill-rule="evenodd" clip-rule="evenodd" d="M28.7417 0.7799C26.2804 0.7799 24.2852 2.77517 24.2852 5.23647V7.0191H26.9591V5.23647C26.9591 4.25195 27.7572 3.45384 28.7417 3.45384C29.7263 3.45384 30.5244 4.25195 30.5244 5.23647V7.0191H33.1983V5.23647C33.1983 2.77517 31.203 0.7799 28.7417 0.7799Z" fill="#D9D9D9" style="fill:#D9D9D9;fill:color(display-p3 0.8510 0.8510 0.8510);fill-opacity:1;"/>
<path fill-rule="evenodd" clip-rule="evenodd" d="M28.7417 1.5598C26.7112 1.5598 25.0651 3.2059 25.0651 5.23647V7.91041H23.5053V5.23647C23.5053 2.34445 25.8497 0 28.7417 0C31.6338 0 33.9782 2.34445 33.9782 5.23647V7.91041H32.4184V5.23647C32.4184 3.2059 30.7723 1.5598 28.7417 1.5598Z" fill="black" style="fill:black;fill-opacity:1;"/>
<path fill-rule="evenodd" clip-rule="evenodd" d="M28.7417 4.23374C28.188 4.23374 27.739 4.68268 27.739 5.23647V7.0191H26.1792V5.23647C26.1792 3.82122 27.3265 2.67394 28.7417 2.67394C30.157 2.67394 31.3043 3.82122 31.3043 5.23647V7.0191H29.7445V5.23647C29.7445 4.68268 29.2955 4.23374 28.7417 4.23374Z" fill="black" style="fill:black;fill-opacity:1;"/>
<path d="M23.8395 9.69304C23.8395 8.70852 24.6376 7.91041 25.6221 7.91041H31.8613C32.8459 7.91041 33.644 8.70852 33.644 9.69304V15.0409C33.644 16.0254 32.8459 16.8235 31.8613 16.8235H25.6221C24.6376 16.8235 23.8395 16.0254 23.8395 15.0409V9.69304Z" fill="#D3D3D3" style="fill:#D3D3D3;fill:color(display-p3 0.8276 0.8276 0.8276);fill-opacity:1;"/>
<path fill-rule="evenodd" clip-rule="evenodd" d="M25.6221 6.39518H31.8613C33.6827 6.39518 35.1592 7.87168 35.1592 9.69304V15.0409C35.1592 16.8623 33.6827 18.3388 31.8613 18.3388H25.6221C23.8008 18.3388 22.3243 16.8623 22.3243 15.0409V9.69304C22.3243 7.87168 23.8008 6.39518 25.6221 6.39518ZM25.6221 7.91041C24.6376 7.91041 23.8395 8.70852 23.8395 9.69304V15.0409C23.8395 16.0254 24.6376 16.8235 25.6221 16.8235H31.8613C32.8459 16.8235 33.644 16.0254 33.644 15.0409V9.69304C33.644 8.70852 32.8459 7.91041 31.8613 7.91041H25.6221Z" fill="black" style="fill:black;fill-opacity:1;"/>
</g>
<defs>
<clipPath id="clip0_11_324">
<rect width="40" height="40" fill="white" style="fill:white;fill-opacity:1;"/>
</clipPath>
</defs>
</svg>

<svg xmlns="http://www.w3.org/2000/svg" width="40" height="40" fill="none"><g clip-path="url(#a)"><path fill="#F3D48F" d="M12.758 7.518a3.52 3.52 0 0 0-5.29-.36l-.755.756C4.296 10.33 3.092 13.806 4.2 17.04a33.3 33.3 0 0 0 7.985 12.776A33.3 33.3 0 0 0 24.961 37.8c3.233 1.108 6.709-.096 9.125-2.512l.755-.756a3.52 3.52 0 0 0-.359-5.29l-4.948-3.761a3.52 3.52 0 0 0-4.618.313l-2.155 2.154c-.687.688-3.194-.705-5.599-3.11s-3.798-4.912-3.11-5.6l2.154-2.154a3.52 3.52 0 0 0 .313-4.618z" style="fill:#f3d48f;fill:color(display-p3 .9527 .8304 .5627);fill-opacity:1"/><path fill="#DBB96E" fill-rule="evenodd" d="M16.539 16.705a3.48 3.48 0 0 0 .086-4.316L12.91 7.5a3.477 3.477 0 0 0-5.001-.56c.181 4.945 3.856 8.998 8.63 9.764m8.087 9.14.293-.292a3.476 3.476 0 0 1 4.561-.31l4.888 3.716a3.48 3.48 0 0 1 1.108 4.102q-.502.05-1.02.05c-4.628 0-8.542-3.059-9.83-7.265" clip-rule="evenodd" style="fill:#dbb96e;fill:color(display-p3 .8588 .7255 .4314);fill-opacity:1"/><path fill="#000" fill-rule="evenodd" d="m5.452 6.654.755-.756a5.302 5.302 0 0 1 7.97.541l3.762 4.949a5.3 5.3 0 0 1-.473 6.957l-1.7 1.7q.08.192.24.483c.462.832 1.297 1.93 2.417 3.05s2.217 1.954 3.049 2.416q.291.16.483.24l1.7-1.7a5.3 5.3 0 0 1 6.957-.473l4.949 3.761a5.302 5.302 0 0 1 .54 7.97l-.755.756c-2.774 2.775-6.937 4.319-10.963 2.939a35.1 35.1 0 0 1-13.458-8.412 35.1 35.1 0 0 1-8.412-13.458c-1.38-4.026.164-8.189 2.939-10.963m2.016.505a3.52 3.52 0 0 1 5.29.359l3.761 4.948a3.52 3.52 0 0 1-.313 4.618l-2.154 2.155c-.688.687.705 3.194 3.11 5.599s4.912 3.798 5.6 3.11l2.154-2.154a3.52 3.52 0 0 1 4.618-.313l4.948 3.76a3.52 3.52 0 0 1 .36 5.291l-.756.756c-2.416 2.416-5.892 3.62-9.125 2.512a33.3 33.3 0 0 1-12.776-7.985A33.3 33.3 0 0 1 4.2 17.039c-1.108-3.233.096-6.709 2.513-9.125z" clip-rule="evenodd" style="fill:#000;fill-opacity:1"/><path fill="#D9D9D9" fill-rule="evenodd" d="M28.742.78a4.457 4.457 0 0 0-4.457 4.456V7.02h2.674V5.236a1.783 1.783 0 1 1 3.565 0V7.02h2.674V5.236A4.457 4.457 0 0 0 28.742.78" clip-rule="evenodd" style="fill:#d9d9d9;fill:color(display-p3 .851 .851 .851);fill-opacity:1"/><path fill="#000" fill-rule="evenodd" d="M28.742 1.56a3.677 3.677 0 0 0-3.677 3.676V7.91h-1.56V5.236a5.236 5.236 0 1 1 10.473 0V7.91h-1.56V5.236a3.677 3.677 0 0 0-3.676-3.676" clip-rule="evenodd" style="fill:#000;fill-opacity:1"/><path fill="#000" fill-rule="evenodd" d="M28.742 4.234c-.554 0-1.003.449-1.003 1.002V7.02h-1.56V5.236a2.563 2.563 0 0 1 5.125 0V7.02h-1.56V5.236c0-.553-.448-1.002-1.002-1.002" clip-rule="evenodd" style="fill:#000;fill-opacity:1"/><path fill="#D3D3D3" d="M23.84 9.693c0-.984.798-1.783 1.782-1.783h6.24c.984 0 1.782.799 1.782 1.783v5.348c0 .984-.798 1.782-1.783 1.782h-6.239a1.783 1.783 0 0 1-1.782-1.782z" style="fill:#d3d3d3;fill:color(display-p3 .8276 .8276 .8276);fill-opacity:1"/><path fill="#000" fill-rule="evenodd" d="M25.622 6.395h6.24a3.3 3.3 0 0 1 3.297 3.298v5.348a3.3 3.3 0 0 1-3.298 3.298h-6.239a3.3 3.3 0 0 1-3.298-3.298V9.693a3.3 3.3 0 0 1 3.298-3.298m0 1.515c-.984 0-1.782.799-1.782 1.783v5.348c0 .984.798 1.782 1.782 1.782h6.24c.984 0 1.782-.798 1.782-1.782V9.693c0-.984-.798-1.783-1.783-1.783z" clip-rule="evenodd" style="fill:#000;fill-opacity:1"/></g><defs><clipPath id="a"><path fill="#fff" d="M0 0h40v40H0z" style="fill:#fff;fill-opacity:1"/></clipPath></defs></svg>
